X: 1980
T: As Fadas De Estraño Nome
R: jig
M: 6/8
K: Dmajor
DFA d2 d|BdA BAF|DEF ABA|E2A FED|
DFA d2d|BdA BAF|DEF ABA|EAF D3:|
dAd dAd|F2E FED|Add BAB|F2A B3|
Add Bdd|Add FEF|DDDA2B|FFFE2F|D3:|
FGF Fd=c|BAG AB=c|FGF Fd=c|BAGA3|
FGA FDD|GEE FDD|=cBA AGF|E2FD3:|

